X:71
T:Blackberry Blossom Reel  Allan's   #71  pg18
C:Trad/Anon
B:Allan's Irish Fiddler (pub. Mozart Allen,  Glascow) date unknown
Z:FROM ALLAN'S TO NOTEWORTHY, FROM NOTEWORTHY TO ABC, MIDI AND .TXT BY VINCE
BRENNAN Dec. 2002 (HTTP://WWW.SOSYOURMOM.COM)
I:abc2nwc
M:2/2
L:1/8
K:G
(ge)|dBAc BGGA|BcBAB2(ge)|dBAc BGGB|Aaaga2(ge)|
dBAc BGGA|BcBAB2(ge)|dBAc BGGB|Aaaga2(ef)||
gfga bgaf|gfga bgef|gfga bgag|eaaga2(ef)|
gfga bgaf|gfga bgdg|bgaf gefd|eaag a2:|
